X: 1485
T: Gervasoni Waltz No 3
B: australian traditional tunes wiki
M:3/4
L:1/8
R: Waltz
Q: 1/4=100
K:G
V:1 
(3def|"G"g2gg gg|g2a2g2|"D7"f6|c6|f3ef2|a2g2f2|"C"e3fe2|"G"d6|
B2Bd Bd|B2e2d2|"D7"d6|c4B2|A3BA2|A2d2c2|"C"c3ec2|"G"B4(3def|
"G"g2gg gg|g2a2g2|"D7"f6|c6|f2e2f2|a2g2f2|"C"e3fe2|"G"d6|
B2Bd Bd|B2e2d2|"D7"d6|c4g2|f2ff ff|f2b2a2|"G"g6-|g4d2|
"G"g3f ga|"D7"f2e2d2|f4e2|"G"d3ed2|"C"e3de2|"D7"c2B2c2|"G"d4c2|B4d2|
"G"g3f ga|"D7"f2e2d2|f4e2|"G"d3ed2|"C"e3de2|"D7"f4(3efe|d2e2f2|"G"g4||
% abcbook-tune_id 6342d53afffa9ac535ea21bb


% abcbook-boost 0
% abcbook-tablature 
% abcbook-transpose 
% abcbook-lastupdated 1665324367452
% abcbook-soundfonts 
% abcbook-repeats 1
% NFF Book 2007

